dist/svgs/crypto-icons/icons/gup.svg

<?xml version="1.0" encoding="UTF-8" standalone="yes"?>
<svg xmlns="http://www.w3.org/2000/svg" xmlns:xlink="http://www.w3.org/1999/xlink" width="354.66666666666663px" height="510.66666666666663px" viewBox="0 0 266 383" version="1.1">
  <g id="surface1">
    <path style=" stroke:none;fill-rule:evenodd;fill:rgb(0%,0%,0%);fill-opacity:1;" d="M 77.882812 87.371094 L 133 0 L 188.117188 87.371094 L 131.800781 123.277344 Z M 18.773438 182.722656 L 66.699219 106.121094 L 131.800781 149.210938 L 199.300781 106.121094 L 247.226562 181.925781 L 247.226562 182.722656 C 253.085938 192.5625 257.679688 203.136719 261.007812 214.441406 C 264.335938 225.742188 266 237.644531 266 250.148438 C 266 268.5 262.539062 285.785156 255.617188 302.011719 C 248.691406 317.96875 239.171875 332 227.058594 344.101562 C 214.945312 356.203125 200.898438 365.710938 184.921875 372.628906 C 168.679688 379.542969 151.371094 383 133 383 C 114.628906 383 97.320312 379.542969 81.078125 372.628906 C 65.101562 365.710938 51.054688 356.203125 38.941406 344.101562 C 26.828125 332 17.308594 317.96875 10.382812 302.011719 C 3.460938 285.785156 0 268.5 0 250.148438 C 0 237.644531 1.664062 225.742188 4.992188 214.441406 C 8.320312 203.136719 12.914062 192.5625 18.773438 182.722656 Z M 18.773438 182.722656 "/>
  </g>
</svg>

<svg xmlns="http://www.w3.org/2000/svg" viewBox="0 0 266 383"><path fill-rule="evenodd" d="M77.883 87.371L133 0l55.117 87.371-56.316 35.906zm-59.11 95.352L66.7 106.12l65.102 43.09 67.5-43.09 47.926 75.805v.797c5.859 9.84 10.453 20.414 13.78 31.718 3.329 11.301 4.993 23.204 4.993 35.707 0 18.352-3.46 35.637-10.383 51.864-6.926 15.957-16.445 29.988-28.558 42.09-12.114 12.101-26.16 21.609-42.137 28.527C168.68 379.543 151.372 383 133 383c-18.371 0-35.68-3.457-51.922-10.371-15.976-6.918-30.023-16.426-42.137-28.527C26.828 332 17.31 317.969 10.383 302.012 3.46 285.785 0 268.5 0 250.148c0-12.503 1.664-24.406 4.992-35.707 3.328-11.304 7.922-21.879 13.781-31.718zm0 0"/></svg>
